X:1
T:James Edmund Jones
T:Langemarck
%%score { ( 1 2 ) | ( 3 4 ) }
L:1/8
M:4/4
K:D
V:1 treble 
V:2 treble 
V:3 bass 
V:4 bass 
V:1
 A2 | A4 (G2 F2) | E2 D2 C2 D2 | G4 F4 | E6 G2 | F4 B4 | ^G3 G A2 B2 | c4 B4 | A6 z2 | d4 d2 c2 | %10
 B2 A2 G2 F2 | B4 E4 | E6 E2 | F4 c4 | A2 G2 F2 E2 | F4 E4 | F6 z2 | F4 E2 D2 | B6 B2 | %19
 B2 B2 c2 d2 | c6 z2 | d4 c2 d2 | d2 B2 A2 D2 | F6 E2 | D8 | D8 D8 |] %26
V:2
 F2 | F4 (C2 D2) | A,2 A,2 A,2 D2 | E4 D4 | C6 C2 | D4 D4 | E2 E2 E2 F2 | E6 D2 | C6 z2 | %9
 F4 E2 E2 | D2 ^D2 E2 D2 | E4 D4 | C6 C2 | D4 D4 | D2 D2 =C2 B,2 | (A,2 B,2) C4 | D6 z2 | %17
 =C4 C2 C2 | (B,2 D4) ^D2 | E2 E2 E2 ^G2 | A6 z2 | A4 A2 A2 | A2 G2 D2 D2 | D4 C4 | D8 | B,8 A,8 |] %26
V:3
 A,2 | A,4 A,4 | A,2 A,2 G,2 F,2 | A,4 A,4 | A,6 A,2 | A,4 B,4 | B,2 B,2 A,2 F,2 | (A,2 F,2) ^G,4 | %8
 A,4 z2 z2 | A,4 ^A,2 A,2 | B,2 B,2 B,2 B,2 | B,4 B,4 | A,6 A,2 | A,4 =C4 | =C2 B,2 A,2 G,2 | %15
 F,4 G,4 | A,6 z2 | A,4 A,2 A,2 | G,6 A,2 | ^G,2 G,2 A,2 E2 | E6 z2 | D4 E2 D2 | D2 D2 F,2 G,2 | %23
 A,4 G,4 | F,8 | G,8 F,8 |] %26
V:4
 D,2 | D,4 (E,2 F,2) | G,2 F,2 E,2 D,2 | C,4 D,4 | A,,6 A,,2 | D,4 B,,4 | E,2 D,2 C,2 D,2 | %7
 E,4 E,4 | (A,,2 G,2 F,2 E,2) | D,4 F,2 F,2 | B,,2 F,2 E,2 A,2 | G,4 ^G,4 | (A,2 G,2 F,2) E,2 | %13
 D,4 F,4 | G,2 G,2 ^D,2 E,2 | A,,4 A,,4 | D,6 z2 | D,4 E,2 F,2 | G,6 F,2 | E,2 E,2 E,2 E,2 | %20
 A,6 z2 | F,4 E,2 F,2 | G,2 G,,2 A,,2 B,,2 | A,,4 A,,4 | D,8 | G,,8 D,8 |] %26

